X:505
T:MacFarlane's Reel
R:Reel
S:McGlashan - Reels
M:C|
L:1/8
K:D
e|fA AA/A/ e>dBe|fA A/A/A e2 de|fA A/A/A e>dBg|aefd e2d:|
|:e|fdfd e>dBe|fdfd e2 de|fdfd e>dBg|a>efd e2 d:|
g|b/a/g/f/ gd BGGB|c>AB>G A>GEg|b/a/g/f/ gd BGGB|c>Ad>B G/G/G Gg||
b/a/g/f/ gd B>GGB|c>aB>g A>GEg|b/a/g/f/ gd B>GGB|c>Ad>B G/G/G G||
g|dgg>e dgb>a|g>edB A>GEA|Ggge dgb>a|g>ed>B G/G/G Gg|Ggg>e dgb>a|
ge/g/ dB/d/ A>GEg/a/|b/a/g a/g/e dg/a/b>a|gedB G/G/G G2||

